X: 32
T:Mother Riley's Tour
% Nottingham Music Database
S:John Goodacre 1989, via PR
M:4/4
L:1/4
K:D
A|"D"d/2d/2d/2e/2 fe/2f/2|"G"g/2B/2B/2B/2 gf/2e/2|"D"d/2d/2d/2e/2 fe/2d/2|\
"A"ca ef|
"D"d/2d/2d/2e/2 fe/2f/2|"G"g/2B/2B/2B/2 gf/2e/2|\
"D"f/2a/2g/2e/2 "A"c/2A/2B/2c/2| [1"D"df d:|
 [2"D"df d2|:"A"c3/2B/2 A2|e3/2d/2 c/2B/2A|"D"fe d/2d/2e/2f/2|\
"G"g/2B/2B/2B/2 gf/2e/2|
"D"d/2d/2d/2e/2 fe/2f/2|"G"g/2B/2B/2B/2 gf/2e/2|\
"D"f/2a/2g/2e/2 "A"c/2A/2B/2c/2| [1"D"df d2:|[2"D"df d||<end>
<start>
